X:595
T:Kemnay House 
C:Joe Buchanan's Scottish Tome - Page 165.1
I:165 1
C:Adam Rennie
R:Reel
Z:Carl Allison
L:1/8
M:4/4
K:A
fg |"A" a/a/a/a/ ga |"A" ec A>A |"A" E/E/E/E/ Ac |"Bm" f3 a |
"E7"g/g/g/g/ fe | "E7"gg ge |"E7" d/d/d/d/ cB |"F#m" A/c/f "E7"ef/a/ |
"A"a/a/a/a/ ga |"A" ec A>A |"A" E/E/E/E/ Ac | "D"f3 a |
"E7"g/g/g/g/ fe |"E7" gg gf |"E7" e/e/e/e/ fg |"A" a2 a2 |
"A"e/e/e/e/ ac |"A" fe ec/d/ |"A" e/e/e/e/ ea | "E7"(ag) gB/c/ |
"Bm"d/d/d/d/ cd |"E7" gB "D"f>A |"E7" G/A/B/c/ d/e/f/g/ | "A"(fe) "E7"ec/d/ |
"A"e/e/e/e/ ac |"A" fe ec/d/ |"A" e/e/e/e/ ea | "E7"(ag) gB/c/ |
"E7"d/d/d/d/ cd |"E7" gB "D"fA |"E7" G/A/B/c/ d/e/f/g/ |"A" a2 a2 |

